Newaita-dark/apps/22/com.github.danrabbit.nimbus.svg

<svg height="22" viewBox="0 0 22 22" width="22" xmlns="http://www.w3.org/2000/svg" xmlns:xlink="http://www.w3.org/1999/xlink"><linearGradient id="a"><stop offset="0" stop-opacity=".313726"/><stop offset=".222222" stop-opacity=".27451"/><stop offset="1" stop-opacity="0"/></linearGradient><radialGradient id="b" cx="450.908936" cy="189.579361" gradientTransform="matrix(.00000012 -.0537161 -.0966889 -.00000007 30.609667 43.721789)" gradientUnits="userSpaceOnUse" r="21.166656" xlink:href="#a"/><radialGradient id="c" cx="450.908936" cy="189.579361" gradientTransform="matrix(-.00000012 .0537161 .0966889 .00000007 -8.779457 -5.175144)" gradientUnits="userSpaceOnUse" r="21.166656" xlink:href="#a"/><radialGradient id="d" cx="450.908936" cy="189.579361" gradientTransform="matrix(-.00000012 -.0537161 .0966889 -.00000007 -8.779457 43.721789)" gradientUnits="userSpaceOnUse" r="21.166656" xlink:href="#a"/><radialGradient id="e" cx="450.908936" cy="189.579361" gradientTransform="matrix(.00000012 .0537161 -.0966889 .00000007 30.609666 -5.175144)" gradientUnits="userSpaceOnUse" r="21.166656" xlink:href="#a"/><linearGradient id="f" gradientTransform="matrix(.00918504 0 0 .0429729 8.569953 9.239164)" gradientUnits="userSpaceOnUse" x1="255.323059" x2="255.323044" y1="233.5" y2="254.666656"><stop offset="0" stop-opacity=".27451"/><stop offset="1" stop-opacity="0"/></linearGradient><linearGradient id="g" gradientUnits="userSpaceOnUse" x1="10.9151166" x2="10.9151166" y1="1.99106697081" y2="19.27333515"><stop offset="0" stop-color="#64b5f6"/><stop offset="1" stop-color="#42a5f5"/></linearGradient><linearGradient id="h" gradientUnits="userSpaceOnUse" x1="10.915104" x2="10.915104" y1="19.27332401286" y2="1.99107567177"><stop offset="0" stop-color="#bdbdbd"/><stop offset="1" stop-color="#e0e0e0"/></linearGradient><path d="m12.507812 19.273438h1.816407v-.910157h-1.816407zm0 0" fill="url(#b)"/><path d="m9.324219 19.273438h-1.820313v.910156h1.820313zm0 0" fill="url(#c)"/><path d="m9.324219 19.273438h-1.820313v-.910157h1.820313zm0 0" fill="url(#d)"/><path d="m12.507812 19.273438h1.816407v.910156h-1.816407zm0 0" fill="url(#e)"/><path d="m9.324219 19.046875h3.183593v1.136719h-3.183593zm0 0" fill="url(#f)"/><path d="m10.914062 1.992188c4.773438 0 8.640626 3.867187 8.640626 8.640624 0 4.773438-3.867188 8.640626-8.640626 8.640626-4.769531 0-8.640624-3.867188-8.640624-8.640626 0-4.773437 3.871093-8.640624 8.640624-8.640624zm0 0" fill="url(#g)"/><path d="m10.914062 19.273438c-4.785156 0-8.640624-3.855469-8.640624-8.640626 0-.027343 0-.058593 0-.085937.046874 4.75 3.882812 8.558594 8.640624 8.558594 4.761719 0 8.597657-3.808594 8.640626-8.558594v.085937c0 4.785157-3.851563 8.640626-8.640626 8.640626zm0 0" fill-opacity=".196078"/><path d="m10.914062 1.992188c-4.785156 0-8.640624 3.851562-8.640624 8.640624v.085938c.046874-4.75 3.882812-8.558594 8.640624-8.558594 4.761719 0 8.597657 3.808594 8.640626 8.558594 0-.03125 0-.058594 0-.085938 0-4.789062-3.851563-8.640624-8.640626-8.640624zm0 0" fill="#fff" fill-opacity=".392157"/><path d="m10.914062 1.925781c-4.820312 0-8.703124 3.882813-8.703124 8.707031 0 4.820313 3.882812 8.703126 8.703124 8.703126 4.824219 0 8.707032-3.882813 8.707032-8.703126 0-4.824218-3.882813-8.707031-8.707032-8.707031zm0 .128907c4.753907 0 8.578126 3.824218 8.578126 8.578124 0 4.75-3.824219 8.574219-8.578126 8.574219-4.75 0-8.574218-3.824219-8.574218-8.574219 0-4.753906 3.824218-8.578124 8.574218-8.578124zm0 0" fill="#212121"/><path d="m12.050781 6.085938c-1.210937 0-2.21875.851562-2.449219 1.996093-.21875-.113281-.46875-.179687-.734374-.179687-.878907 0-1.589844.710937-1.589844 1.59375 0 .113281.011718.222656.035156.332031-.816406.269531-1.398438 1.035156-1.398438 1.941406 0 1.132813.910157 2.046875 2.042969 2.046875h6.140625v-.011718c1.027344-.113282 1.820313-.980469 1.820313-2.035157 0-1-.710938-1.828125-1.65625-2.007812.1875-.351563.292969-.75.292969-1.175781 0-1.386719-1.117188-2.5-2.503907-2.5zm0 0" fill="url(#h)"/><path d="m12.050781 6.085938c-1.210937 0-2.21875.851562-2.449219 1.996093-.21875-.113281-.46875-.179687-.734374-.179687-.878907 0-1.589844.710937-1.589844 1.59375 0 .046875 0 .09375.003906.140625.074219-.816407.753906-1.449219 1.585938-1.449219.265624 0 .515624.0625.734374.175781.230469-1.140625 1.238282-1.996093 2.449219-1.996093 1.339844 0 2.425781 1.042968 2.5 2.359374 0-.046874.003907-.09375.003907-.140624 0-1.386719-1.117188-2.5-2.503907-2.5zm2.386719 3.714843c-.046875.144531-.105469.28125-.175781.414063.042969.007812.082031.015625.121093.027344.019532-.050782.035157-.105469.054688-.15625.8125.230468 1.414062.949218 1.476562 1.824218.003907-.046875.003907-.09375.003907-.140625 0-.9375-.625-1.722656-1.480469-1.96875zm-7.160156.039063c-.796875.277344-1.363282 1.035156-1.363282 1.929687 0 .046875 0 .09375.003907.140625.054687-.832031.605469-1.523437 1.363281-1.789062-.003906.039062-.003906.074218-.003906.113281v.058594c.011718-.003907.023437-.007813.035156-.011719-.023438-.105469-.035156-.21875-.035156-.332031 0-.027344 0-.054688 0-.085938 0-.007812 0-.015625 0-.023437zm0 0" fill="#fff"/><path d="m14.542969 8.820312c-.03125.335938-.128907.65625-.28125.941407.0625.007812.121093.023437.179687.039062.074219-.234375.113282-.488281.113282-.746093 0-.082032-.003907-.15625-.011719-.234376zm-7.25.910157c-.003907.035156-.007813.070312-.011719.105469.011719-.003907.019531-.007813.03125-.007813-.007812-.035156-.015625-.066406-.019531-.097656zm-1.367188 2.273437c-.007812.074219-.011719.152344-.011719.234375 0 1.132813.910157 2.042969 2.042969 2.042969h6.140625v-.011719c1.027344-.113281 1.820313-.976562 1.820313-2.03125 0-.082031-.003907-.160156-.011719-.234375-.109375.945313-.859375 1.695313-1.808594 1.800782v.011718h-6.140625c-1.054687 0-1.917969-.789062-2.03125-1.8125zm0 0" fill-opacity=".235294"/><path d="m1059.884525 535.267452c-106.503793 0-195.142434 74.896216-215.412511 175.559479-19.239395-9.963258-41.227275-15.803788-64.589397-15.803788-77.301141 0-139.829174 62.528033-139.829174 140.172734 0 9.963258 1.030682 19.582956 3.092045 29.202653-71.80417 23.705683-122.994703 91.043566-122.994703 170.74963 0 99.632581 80.049625 180.025768 179.682206 180.025768h540.077301v-1.030682c90.356445-9.963258 160.099251-86.233717 160.099251-178.995086 0-87.951519-62.528033-160.786372-145.669704-176.59016 16.49091-30.920456 25.767046-65.96364 25.767046-103.411748 0-121.964022-98.258338-219.8788-220.22236-219.8788zm0 0" fill="none" stroke="#212121" stroke-linecap="round" stroke-linejoin="round" stroke-width="11.338583" transform="scale(.0113699)"/></svg>

<?xml version="1.0" encoding="UTF-8"?>
<svg xmlns="http://www.w3.org/2000/svg" xmlns:xlink="http://www.w3.org/1999/xlink" width="22px" height="22px" viewBox="0 0 22 22" version="1.1">
<defs>
<radialGradient id="radial0" gradientUnits="userSpaceOnUse" cx="450.908936" cy="189.579361" fx="450.908936" fy="189.579361" r="21.166656" gradientTransform="matrix(0.000000119742,-0.0537161,-0.0966889,-0.0000000698078,30.609667,43.721789)">
<stop offset="0" style="stop-color:rgb(0%,0%,0%);stop-opacity:0.313726;"/>
<stop offset="0.222222" style="stop-color:rgb(0%,0%,0%);stop-opacity:0.27451;"/>
<stop offset="1" style="stop-color:rgb(0%,0%,0%);stop-opacity:0;"/>
</radialGradient>
<radialGradient id="radial1" gradientUnits="userSpaceOnUse" cx="450.908936" cy="189.579361" fx="450.908936" fy="189.579361" r="21.166656" gradientTransform="matrix(-0.000000119742,0.0537161,0.0966889,0.0000000698078,-8.779457,-5.175144)">
<stop offset="0" style="stop-color:rgb(0%,0%,0%);stop-opacity:0.313726;"/>
<stop offset="0.222222" style="stop-color:rgb(0%,0%,0%);stop-opacity:0.27451;"/>
<stop offset="1" style="stop-color:rgb(0%,0%,0%);stop-opacity:0;"/>
</radialGradient>
<radialGradient id="radial2" gradientUnits="userSpaceOnUse" cx="450.908936" cy="189.579361" fx="450.908936" fy="189.579361" r="21.166656" gradientTransform="matrix(-0.000000119742,-0.0537161,0.0966889,-0.0000000698078,-8.779457,43.721789)">
<stop offset="0" style="stop-color:rgb(0%,0%,0%);stop-opacity:0.313726;"/>
<stop offset="0.222222" style="stop-color:rgb(0%,0%,0%);stop-opacity:0.27451;"/>
<stop offset="1" style="stop-color:rgb(0%,0%,0%);stop-opacity:0;"/>
</radialGradient>
<radialGradient id="radial3" gradientUnits="userSpaceOnUse" cx="450.908936" cy="189.579361" fx="450.908936" fy="189.579361" r="21.166656" gradientTransform="matrix(0.000000119742,0.0537161,-0.0966889,0.0000000698078,30.609666,-5.175144)">
<stop offset="0" style="stop-color:rgb(0%,0%,0%);stop-opacity:0.313726;"/>
<stop offset="0.222222" style="stop-color:rgb(0%,0%,0%);stop-opacity:0.27451;"/>
<stop offset="1" style="stop-color:rgb(0%,0%,0%);stop-opacity:0;"/>
</radialGradient>
<linearGradient id="linear0" gradientUnits="userSpaceOnUse" x1="255.323059" y1="233.5" x2="255.323044" y2="254.666656" gradientTransform="matrix(0.00918504,0,0,0.0429729,8.569953,9.239164)">
<stop offset="0" style="stop-color:rgb(0%,0%,0%);stop-opacity:0.27451;"/>
<stop offset="1" style="stop-color:rgb(0%,0%,0%);stop-opacity:0;"/>
</linearGradient>
<linearGradient id="linear1" gradientUnits="userSpaceOnUse" x1="254" y1="-168.666672" x2="254" y2="233.5" gradientTransform="matrix(0.0429729,0,0,0.0429729,0,9.239163)">
<stop offset="0" style="stop-color:rgb(39.215687%,70.980394%,96.470588%);stop-opacity:1;"/>
<stop offset="1" style="stop-color:rgb(25.882354%,64.705884%,96.078432%);stop-opacity:1;"/>
</linearGradient>
<linearGradient id="linear2" gradientUnits="userSpaceOnUse" x1="960" y1="1695.118164" x2="960" y2="175.118134" gradientTransform="matrix(0.0113699,0,0,0.0113699,0,0)">
<stop offset="0" style="stop-color:rgb(74.117649%,74.117649%,74.117649%);stop-opacity:1;"/>
<stop offset="1" style="stop-color:rgb(87.843138%,87.843138%,87.843138%);stop-opacity:1;"/>
</linearGradient>
</defs>
<g id="surface1">
<path style=" stroke:none;fill-rule:nonzero;fill:url(#radial0);" d="M 12.507812 19.273438 L 14.324219 19.273438 L 14.324219 18.363281 L 12.507812 18.363281 Z M 12.507812 19.273438 "/>
<path style=" stroke:none;fill-rule:nonzero;fill:url(#radial1);" d="M 9.324219 19.273438 L 7.503906 19.273438 L 7.503906 20.183594 L 9.324219 20.183594 Z M 9.324219 19.273438 "/>
<path style=" stroke:none;fill-rule:nonzero;fill:url(#radial2);" d="M 9.324219 19.273438 L 7.503906 19.273438 L 7.503906 18.363281 L 9.324219 18.363281 Z M 9.324219 19.273438 "/>
<path style=" stroke:none;fill-rule:nonzero;fill:url(#radial3);" d="M 12.507812 19.273438 L 14.324219 19.273438 L 14.324219 20.183594 L 12.507812 20.183594 Z M 12.507812 19.273438 "/>
<path style=" stroke:none;fill-rule:nonzero;fill:url(#linear0);" d="M 9.324219 19.046875 L 12.507812 19.046875 L 12.507812 20.183594 L 9.324219 20.183594 Z M 9.324219 19.046875 "/>
<path style=" stroke:none;fill-rule:nonzero;fill:url(#linear1);" d="M 10.914062 1.992188 C 15.6875 1.992188 19.554688 5.859375 19.554688 10.632812 C 19.554688 15.40625 15.6875 19.273438 10.914062 19.273438 C 6.144531 19.273438 2.273438 15.40625 2.273438 10.632812 C 2.273438 5.859375 6.144531 1.992188 10.914062 1.992188 Z M 10.914062 1.992188 "/>
<path style=" stroke:none;fill-rule:nonzero;fill:rgb(0%,0%,0%);fill-opacity:0.196078;" d="M 10.914062 19.273438 C 6.128906 19.273438 2.273438 15.417969 2.273438 10.632812 C 2.273438 10.605469 2.273438 10.574219 2.273438 10.546875 C 2.320312 15.296875 6.15625 19.105469 10.914062 19.105469 C 15.675781 19.105469 19.511719 15.296875 19.554688 10.546875 C 19.554688 10.574219 19.554688 10.605469 19.554688 10.632812 C 19.554688 15.417969 15.703125 19.273438 10.914062 19.273438 Z M 10.914062 19.273438 "/>
<path style=" stroke:none;fill-rule:nonzero;fill:rgb(100%,100%,100%);fill-opacity:0.392157;" d="M 10.914062 1.992188 C 6.128906 1.992188 2.273438 5.84375 2.273438 10.632812 C 2.273438 10.660156 2.273438 10.6875 2.273438 10.71875 C 2.320312 5.96875 6.15625 2.160156 10.914062 2.160156 C 15.675781 2.160156 19.511719 5.96875 19.554688 10.71875 C 19.554688 10.6875 19.554688 10.660156 19.554688 10.632812 C 19.554688 5.84375 15.703125 1.992188 10.914062 1.992188 Z M 10.914062 1.992188 "/>
<path style=" stroke:none;fill-rule:nonzero;fill:rgb(12.941177%,12.941177%,12.941177%);fill-opacity:1;" d="M 10.914062 1.925781 C 6.09375 1.925781 2.210938 5.808594 2.210938 10.632812 C 2.210938 15.453125 6.09375 19.335938 10.914062 19.335938 C 15.738281 19.335938 19.621094 15.453125 19.621094 10.632812 C 19.621094 5.808594 15.738281 1.925781 10.914062 1.925781 Z M 10.914062 2.054688 C 15.667969 2.054688 19.492188 5.878906 19.492188 10.632812 C 19.492188 15.382812 15.667969 19.207031 10.914062 19.207031 C 6.164062 19.207031 2.339844 15.382812 2.339844 10.632812 C 2.339844 5.878906 6.164062 2.054688 10.914062 2.054688 Z M 10.914062 2.054688 "/>
<path style=" stroke:none;fill-rule:nonzero;fill:url(#linear2);" d="M 12.050781 6.085938 C 10.839844 6.085938 9.832031 6.9375 9.601562 8.082031 C 9.382812 7.96875 9.132812 7.902344 8.867188 7.902344 C 7.988281 7.902344 7.277344 8.613281 7.277344 9.496094 C 7.277344 9.609375 7.289062 9.71875 7.3125 9.828125 C 6.496094 10.097656 5.914062 10.863281 5.914062 11.769531 C 5.914062 12.902344 6.824219 13.816406 7.957031 13.816406 L 14.097656 13.816406 L 14.097656 13.804688 C 15.125 13.691406 15.917969 12.824219 15.917969 11.769531 C 15.917969 10.769531 15.207031 9.941406 14.261719 9.761719 C 14.449219 9.410156 14.554688 9.011719 14.554688 8.585938 C 14.554688 7.199219 13.4375 6.085938 12.050781 6.085938 Z M 12.050781 6.085938 "/>
<path style=" stroke:none;fill-rule:nonzero;fill:rgb(100%,100%,100%);fill-opacity:1;" d="M 12.050781 6.085938 C 10.839844 6.085938 9.832031 6.9375 9.601562 8.082031 C 9.382812 7.96875 9.132812 7.902344 8.867188 7.902344 C 7.988281 7.902344 7.277344 8.613281 7.277344 9.496094 C 7.277344 9.542969 7.277344 9.589844 7.28125 9.636719 C 7.355469 8.820312 8.035156 8.1875 8.867188 8.1875 C 9.132812 8.1875 9.382812 8.25 9.601562 8.363281 C 9.832031 7.222656 10.839844 6.367188 12.050781 6.367188 C 13.390625 6.367188 14.476562 7.410156 14.550781 8.726562 C 14.550781 8.679688 14.554688 8.632812 14.554688 8.585938 C 14.554688 7.199219 13.4375 6.085938 12.050781 6.085938 Z M 14.4375 9.800781 C 14.390625 9.945312 14.332031 10.082031 14.261719 10.214844 C 14.304688 10.222656 14.34375 10.230469 14.382812 10.242188 C 14.402344 10.191406 14.417969 10.136719 14.4375 10.085938 C 15.25 10.316406 15.851562 11.035156 15.914062 11.910156 C 15.917969 11.863281 15.917969 11.816406 15.917969 11.769531 C 15.917969 10.832031 15.292969 10.046875 14.4375 9.800781 Z M 7.277344 9.839844 C 6.480469 10.117188 5.914062 10.875 5.914062 11.769531 C 5.914062 11.816406 5.914062 11.863281 5.917969 11.910156 C 5.972656 11.078125 6.523438 10.386719 7.28125 10.121094 C 7.277344 10.160156 7.277344 10.195312 7.277344 10.234375 C 7.277344 10.253906 7.277344 10.273438 7.277344 10.292969 C 7.289062 10.289062 7.300781 10.285156 7.3125 10.28125 C 7.289062 10.175781 7.277344 10.0625 7.277344 9.949219 C 7.277344 9.921875 7.277344 9.894531 7.277344 9.863281 C 7.277344 9.855469 7.277344 9.847656 7.277344 9.839844 Z M 7.277344 9.839844 "/>
<path style=" stroke:none;fill-rule:nonzero;fill:rgb(0%,0%,0%);fill-opacity:0.235294;" d="M 14.542969 8.820312 C 14.511719 9.15625 14.414062 9.476562 14.261719 9.761719 C 14.324219 9.769531 14.382812 9.785156 14.441406 9.800781 C 14.515625 9.566406 14.554688 9.3125 14.554688 9.054688 C 14.554688 8.972656 14.550781 8.898438 14.542969 8.820312 Z M 7.292969 9.730469 C 7.289062 9.765625 7.285156 9.800781 7.28125 9.835938 C 7.292969 9.832031 7.300781 9.828125 7.3125 9.828125 C 7.304688 9.792969 7.296875 9.761719 7.292969 9.730469 Z M 5.925781 12.003906 C 5.917969 12.078125 5.914062 12.15625 5.914062 12.238281 C 5.914062 13.371094 6.824219 14.28125 7.957031 14.28125 L 14.097656 14.28125 L 14.097656 14.269531 C 15.125 14.15625 15.917969 13.292969 15.917969 12.238281 C 15.917969 12.15625 15.914062 12.078125 15.90625 12.003906 C 15.796875 12.949219 15.046875 13.699219 14.097656 13.804688 L 14.097656 13.816406 L 7.957031 13.816406 C 6.902344 13.816406 6.039062 13.027344 5.925781 12.003906 Z M 5.925781 12.003906 "/>
<path style="fill:none;stroke-width:11.338583;stroke-linecap:round;stroke-linejoin:round;stroke:rgb(12.941177%,12.941177%,12.941177%);stroke-opacity:1;stroke-miterlimit:4;" d="M 1059.884525 535.267452 C 953.380732 535.267452 864.742091 610.163668 844.472014 710.826931 C 825.232619 700.863673 803.244739 695.023143 779.882617 695.023143 C 702.581476 695.023143 640.053443 757.551176 640.053443 835.195877 C 640.053443 845.159135 641.084125 854.778833 643.145488 864.39853 C 571.341318 888.104213 520.150785 955.442096 520.150785 1035.14816 C 520.150785 1134.780741 600.20041 1215.173928 699.832991 1215.173928 L 1239.910292 1215.173928 L 1239.910292 1214.143246 C 1330.266737 1204.179988 1400.009543 1127.909529 1400.009543 1035.14816 C 1400.009543 947.196641 1337.48151 874.361788 1254.339839 858.558 C 1270.830749 827.637544 1280.106885 792.59436 1280.106885 755.146252 C 1280.106885 633.18223 1181.848547 535.267452 1059.884525 535.267452 Z M 1059.884525 535.267452 " transform="matrix(0.0113699,0,0,0.0113699,0,0)"/>
</g>
</svg>
